X:1
T:Io d'odorate fronde
T:Madalena Casulana
T:Source : Secondo libro de madrigali a quattro voci---Venetia---G.Scotto---1570. Editor : André Vierendeels (27/08/17).
T:Io d'odorate fronde
T:©
T:©
T:©
T:©
C:Madalena Casulana
Z:©
%%score [ 1 2 3 4 ]
L:1/8
Q:1/4=120
M:2/2
K:C
V:1 treble nm="Soprano 1" snm="S 1"
V:2 treble nm="Soprano 2" snm="S 2"
V:3 treble-8 nm="Tenor" snm="T"
V:4 bass nm="Bass" snm="B"
V:1
 A8 | B6 d2 | d2 B2 c4 | c4 c4- | c2 B2 A4 | B4 z2 c2 | c2 c2 B4 | A4 A3 G | F2 D4 A2- | A2 A2 A4 | %10
w: Io|d'o- do-|ra- te frond'|e de|_ bei fio-|ri, che|la fe- lic'|a rab- *|* bia'in gremb'|_ a- scon-|
 A4 z2 ^F2 | G6 G2 | G2 A2 c4- | c2 G2 G2 E2 | A3 B c4 | c4 z2 A2- | A2 A2 A4 | %17
w: de, te|sacr' un|gran al- tar|_ tra- verd' al-|ho- * *|ri, ch'ar-|* da mai|
"^-natural" B2 c2 d4- | d2 G2 A2 G2 | G8 | G4 z2 B2 | c4 G4 | A4 B4 | c6 c2 | c2 c2 _B4 | %25
w: sem- pre qui|_ vi- cin al|on-|de, e|de le|nim- phe|de la|no- bil Clo-|
 A2 A3 A A2 | A2 F2 G4- | G2 F2 G2 A2 | B4 A4 |[M:3/4] c3 B A2 | G3 A B2 |[M:2/2] c4 d4 | %32
w: ri, me- co la|piu leg- gia-|* dr'in que- ste|spon- de,|can- te- rà,|can- te- rà|le tue|
 f4 e2 c2- | c2 e2 d4 | e2 A3 B c2 | c2 B2 c4 | A4 B2 c2 | A4 A4 | z2 ^c2 d2 e2 | f2 d2 e4- | %40
w: lod' a dun'|_ a du-|na, can- te- rà|le tue lod'|a dun' a|du- na,|fin che col|sol il ciel|
 e2 c3 c B2 | A8 | A4 z2 ^c2 | d2 e2 f2 d2 | e4 c4- | c2 c2 _B4 | A8- | A8 | A8 |] %49
w: _ tut- to s'in|bru-|na, fin|che col sol il|ciel tut-|* to s'in|bru-||na.|
V:2
 ^F8 | G6 G2 | A2 G2 G4 | G4 A4- | A2 G2 ^F4 | G4 z2 E2 | A2 A2 G4 | F4 E4 | D2 A4 F2 | E8 | %10
w: Io|d'o- do-|ra- te frond'|e de|_ bei fio-|ri, che|la fe- lic'|a rab-|bia'in gremb' a-|scon-|
 ^F4 z2 D2 | D6 E2 | D2 F2 A4 | G4 G,2 G2- | G2 F3 E/D/ E2 | F4 z2 F2- | F2 F2 E4 | G6 A2 | %18
w: de, te|sacr' un|gran al- tar|tra- verd' al|_ ho- * * *|ri, ch'ar-|* da mai|sem- pre|
 G2 E2 FEED/C/ | D2 E2 D4 | E4 z2 G2 | G4 E2 G2- | GF/E/ F2 G4 | A6 A2 | A2 G2 G4 | %25
w: qui vi- cin _ _ _ _|_ al on-|de, e|de le nim-|* * * * phe|de la|no- bil Clo-|
"^-natural" ^F4 z2 F2- | FF F2 E2 D2 | E2 C2 DE F2- | FE/D/ E2 F4 |[M:3/4] A3 G E2 | E3 F G2 | %31
w: ri, me|_ co la piu leg-|gia- dr'in que- ste spon-|* * * * de,|can- te- rà,|can- te- rà|
[M:2/2] G4 G4 | A6 G2 | A2 c2 B4 | c2 C3 D E2 | A2 G2 A3 B | c2 C2 D2 G2 | F4 E4 | %38
w: le tue|lod' a|dun' a du-|na, can- te- rà|le tue lod' _|_ a dun' a|du- na,|
"^-natural" z2 A2 B2 c2 | c2 B2 c4- | c2 A3 A G2- | GG F2 E4 | F4 z2 A2 |"^-natural" B2 c2 c2 B2 | %44
w: fin che col|sol il ciel|_ tut- to, tut-|* to s'in bru-|na, fin|che col sol il|
 c4 A4- | A2 A2 G4- | G2 G2 F4 | E8 | ^F8 |] %49
w: ciel tut-|* to, tut-|* to s'in|bru-|na.|
V:3
 d8 | d6 B2 | A2 d2 e4 | e4 f4- | f2 d2 d4 | d2 d2 g2 g2 | f3 e dc d2- | d2 d2 A4 | a2 f3 e d2- | %9
w: Io|d'o- do-|ra- te frond'|e de|_ bei fio-|ri, che la fe-|lic' _ _ _ _|_ a- rab-|bia'in gremb' a- scon-|
 d2 ^c2 c4 | d4 z2 A2 | B6 c2 | B2 c2 f4 | e4 d2 c2 | f4 g4 | a8 | z2 d4 ^c2 | d2 e4 f2 | %18
w: |de, te|sacr' un|gran al- tar|tra- verd' al-|ho _|ri,|ch'ar- da|mai sem- pre|
 e2 c2 c4 | B2 c3 B/A/ B2 | c4 z2 d2 | e6 c2 | c4 d4 | f6 f2 | f2 e2 d4 | d4 z2 d2- | dd d2 c2 B2 | %27
w: qui vi- cin|_ al on- * *|de, e|de le|nim- phe|de la|no- bil Clo-|ri, me-|* co la piu leg-|
 c2 A2 _B2 A2 | G4 F4 |[M:3/4] f3 d c2 | c3 c d2 |[M:2/2] e4 B4 | c6 e2 | f2 c2 g4 | c2 e3 g g2 | %35
w: gia- dr'in que- ste|spon- de,|can- te- rà,|can- te- rà|le tue|lod' a|dun' a du-|na, can- te- rà|
 f2 d2 f4- | f2 e2 g2 e2 | d4 ^c4 | z2 e2 g2 g2 | a2 g2 g4- | g2 f3 f d2 | c2 d3 ^c/B/ c2 | %42
w: le tue lod'|_ a dun' a|du- na,|fin che col|sol il ciel|_ tut- to s'in|bru- * * * *|
 d4 z2 e2 | g2 g2 a2 g2 | g4 f4- | f2 f2 d4 | ^c2 c2 d4- | d2 ^cB c4 | d8 |] %49
w: na, fin|che col sol il|ciel tut-|* to, tut-|to s'in bru-||na.|
V:4
 D,8 | G,6 G,2 | ^F,2 G,2 C,4 | C4 F,4- | F,2 G,2 D,4 | G,4 z2 C2 | F,2 F,2 G,4 | D,2 D4 ^C2 | %8
w: Io|d'o- do-|ra- te frond'|e de|_ bei fio-|ri, che|la le- lic'|a- rab- bia'in|
 D4 D,4 | A,8 | D,4 z2 D,2 | G,6 C,2 | G,2 F,2 F,4 | C4 B,2 C2 | D4 C4 | z2 F,4 F,2 | D,4 A,4 | %17
w: gremb' a-|scon-|de, te|sacr' un|gran al- tar|tra verd' al-|ho- ri,|ch'ar- da|mai sem-|
"^-natural" G,2 C4 F,2 | C3 B, A,2 C2 | G,8 | C,4 z2 G,2 | C6 C2 | A,4 G,4 | F,6 F,2 | %24
w: pre qui vi-|cin _ _ al|on-|de, e|de le|nim- phe|de la|
 F,2 C,2 G,4 | D,8 | z8 | z8 | z8 |[M:3/4] F,3 G, A,2 | C3 A, G,2 |[M:2/2] C,4 G,4 | F,4 C,4 | z8 | %34
w: no- bil Clo-|ri,||||can- te- rà,|can- te- rà|le tue|lo- di,||
 z2 A,3 G, E,2 | F,2 G,2 F,4- | F,2 A,2 G,2 C,2 | D,4 A,4 |"^-natural" z2 A,2 G,2 C2 | %39
w: can- te- rà|le tue lod'|_ ad un' ad|u- na,|fin che col|
 F,2 G,2 C4- | C2 F,3 F, G,2 | A,8 | D,4 z2 A,2 |"^-natural" G,2 C2 F,2 G,2 | C4 F,4- | %45
w: sol il ciel|_ tut- to s'in|bru-|na, fin|che col sol il|ciel tut-|
 F,2 F,2 G,4 | A,8- | A,8 | D,8 |] %49
w: * to s'in|bru-||na.|

